X:578
T: ICH HAB EIN SCHAETZLE IN DER NAEH
N: E0541
O: Europa, Mitteleuropa, Deutschland, Franken
R: Liebes - Lied
M: 2/4
L: 1/16
K: A
E2 | E2A2A2A2 | cBAGA2
E2 | E2A2A2A2 | cBAGA2
A2 | A2a2g2f2 | f4e2
d2 | c4edcB | B4A2

@@@ Tune index: 4228
